X:1606
T:Blink o'er the burn,my sweet laddie. CJF.033
T:No.1. CJF.033
M:6/8
L:1/8
Q:120
C:J Smith
S: C.J.Fox MS, 1829/33, Beverley,E.Yorks.
R:Jig
O:England
A:East Yorkshire
B:Kidson Coll.Mitchell Lib.M1805
N:The extra note at the start of section 3 is as in MS. - PJH.
Z:P J Headford 2000
K:G
"p"d|"$"d>ed dbg|e2cc2e|d>ed dbg|fg^ga2d|!
d>ed dbg|ecB cde|dgb {b}aga|gdbg2h||!
"ff"b|bag gfe|f2bb2b|bag c'af|^de^e fga|!
bag gfe|=f2a c'af|gab ag^f|efg ">"fe"D.C."d||!
K:C
g|"dol."c'ba gfe|a2f dec|Bc^c def|ef^f gab|!
c'ba gfe|dag fed|cBA GAB|(d3"$"c2)||


